X:484
T:Where Are You Going Love?
N:"Moderate" "collected by J.O'Neill"
N:Irish title: ca ra.cai.d tu a .gra.d?
B:O'Neill's 484
Z:Transcribed by henrik.norbeck@mailbox.swipnet.se
M:3/4
L:1/8
K:G
d gf|g2 ag fag/e/|dB GD G/A/B/.d/|cA FA GG|G3 d gf|
g2 ag fag/e/|dB GA B/d/f/e/|dc AF GG|G3||
A/B/ cB|AB cd .e/.f/.g/.b/|af dd e/f/g/.e/|a2 bg ~fe|d3 e/f/ gf|
g2 ag fag/e/|dB GA B/d/f/e/|dc AF GG|G3||
